images/github.svg

<?xml version="1.0" encoding="UTF-8"?>
<svg width="32px" height="32px" viewBox="0 0 32 32" version="1.1" xmlns="http://www.w3.org/2000/svg" xmlns:xlink="http://www.w3.org/1999/xlink">
    <!-- Generator: Sketch 47.1 (45422) - http://www.bohemiancoding.com/sketch -->
    <title>github</title>
    <desc>Created with Sketch.</desc>
    <defs></defs>
    <g id="лендинг" stroke="none" stroke-width="1" fill="none" fill-rule="evenodd">
        <g id="Sharpay-home-Copy" transform="translate(-388.000000, -765.000000)" fill="#FFFFFF">
            <g id="github" transform="translate(388.000000, 765.000000)">
                <path d="M16.0001067,0 L16.0001369,8e-05 C24.8364036,8e-05 32.0000302,7.22232 32.0000302,16.13176 C32.0000302,23.25672 27.4213636,29.3014133 21.0674436,31.43688 C20.2564153,31.5952853 19.9684089,31.0922757 19.9684089,30.662992 C19.9684089,30.1316587 19.9869558,28.3944907 19.9869558,26.2360533 C19.9869558,24.731024 19.4755905,23.7493067 18.9016971,23.2486987 C22.4645398,22.8493387 26.2075638,21.485072 26.2075638,15.2891787 C26.2075638,13.527968 25.5867745,12.0889173 24.5608651,10.9592107 C24.7269921,10.5529013 25.2749179,8.91216533 24.4040113,6.69014933 C24.4040113,6.69014933 23.0622779,6.256592 20.0084006,8.34370667 C18.7297286,7.9862816 17.3599046,7.80703472 16.0001553,7.80089067 C14.6404059,7.80703467 13.2716486,7.98628213 11.9953553,8.34370667 C8.93777125,6.25659147 7.59418192,6.69014933 7.59418192,6.69014933 C6.72539099,8.91216533 7.27305605,10.5529008 7.43918299,10.9592107 C6.41565765,12.0889173 5.79062832,13.527968 5.79062832,15.2891787 C5.79062832,21.470368 9.52648432,22.8535856 13.080335,23.2614987 C12.6227563,23.664336 12.2081009,24.3759787 12.064495,25.4186027 C11.151455,25.8307893 8.83548165,26.5437707 7.40843099,24.0775947 C7.40843099,24.0775947 6.56242565,22.5290203 4.95573765,22.4152213 C4.95573765,22.4152213 3.39462032,22.3946507 4.84631099,23.3958667 C4.84631099,23.3958667 5.89500432,23.891664 6.62283899,25.756256 C6.62283899,25.756256 7.56209232,28.635424 12.0133457,27.659584 C12.0202345,29.0075413 12.035072,30.2782933 12.035072,30.6629653 C12.035072,31.0890416 11.741504,31.5883141 10.9418667,31.4389867 C4.58452267,29.30592 0,23.2590933 0,16.13168 C0,7.22224 7.16464,0 16.0001067,0 Z M6.10725173,23.0508571 C6.07207819,23.1302069 5.94725173,23.1540117 5.8335328,23.0995249 C5.71769813,23.0474186 5.65264,22.9392385 5.69019413,22.8596241 C5.72457429,22.777894 5.84966507,22.7551468 5.9652352,22.8098982 C6.0813344,22.8620046 6.14745013,22.9712428 6.10725173,23.0508572 L6.10725173,23.0508571 Z M6.75411573,23.7724165 C6.6779504,23.8430379 6.52905813,23.8102399 6.42803307,23.6986213 C6.32357013,23.5872672 6.304,23.4383541 6.38122315,23.3666747 C6.45976875,23.2960533 6.60416555,23.3291157 6.70889248,23.4404699 C6.81335541,23.5531467 6.83371861,23.7010016 6.75411557,23.7724165 L6.75411573,23.7724165 Z M7.38378507,24.6923147 C7.28593387,24.7602912 7.12593387,24.6965467 7.02702453,24.5545104 C6.92917333,24.4124741 6.92917333,24.2421365 7.02914021,24.173896 C7.12831355,24.1056549 7.28593381,24.167019 7.38616528,24.3079973 C7.48375195,24.4524139 7.48375195,24.6227515 7.38378512,24.6923147 L7.38378507,24.6923147 Z M8.24650667,25.5810667 C8.1589696,25.6776091 7.9725232,25.651688 7.83606027,25.5199675 C7.696424,25.3911563 7.65754773,25.2083872 7.74534933,25.1118453 C7.83394453,25.0150384 8.02144853,25.0422821 8.15896907,25.1729445 C8.29754773,25.3014912 8.33986187,25.4855824 8.24650613,25.5810667 L8.24650667,25.5810667 Z M9.43658667,26.0970661 C9.39797509,26.2221744 9.2184048,26.2790416 9.03751253,26.2258773 C8.85688427,26.1711259 8.73866933,26.0245936 8.77516533,25.8981627 C8.81271909,25.7722608 8.99308267,25.7130133 9.1752976,25.7698805 C9.35566133,25.8243675 9.47414027,25.9698421 9.43658667,26.0970661 Z M10.7435627,26.1928336 C10.7480586,26.3245541 10.5946699,26.4337925 10.4047856,26.4361728 C10.2138432,26.4404047 10.0593973,26.3338117 10.0572816,26.2042069 C10.0572816,26.0711637 10.207232,25.9629835 10.3981744,25.9598096 C10.5880587,25.9561066 10.7435627,26.0619061 10.7435627,26.1928336 Z M11.959808,25.9857099 C11.9825518,26.1142565 11.8505851,26.2462416 11.6620229,26.2814203 C11.4766347,26.3152762 11.3049979,26.2359263 11.2814608,26.1084379 C11.2584525,25.9767173 11.3927995,25.8447323 11.5779237,25.8106117 C11.7667504,25.7778139 11.9357419,25.8550476 11.959808,25.9857104 L11.959808,25.9857099 Z" id="Combined-Shape"></path>
            </g>
        </g>
    </g>
</svg>

<?xml version="1.0" encoding="utf-8"?>
<!-- Generator: Adobe Illustrator 22.0.0, SVG Export Plug-In . SVG Version: 6.00 Build 0)  -->
<svg version="1.1" id="Слой_1" xmlns="http://www.w3.org/2000/svg" xmlns:xlink="http://www.w3.org/1999/xlink" x="0px" y="0px"
	 viewBox="0 0 32 32" style="enable-background:new 0 0 32 32;" xml:space="preserve">
<style type="text/css">
	.st0{fill:#FFFFFF;}
</style>
<title>github</title>
<desc>Created with Sketch.</desc>
<g id="лендинг">
	<g id="Sharpay-home-Copy" transform="translate(-388.000000, -765.000000)">
		<g id="github" transform="translate(388.000000, 765.000000)">
			<path id="Combined-Shape" class="st0" d="M16,0L16,0c8.8,0,16,7.2,16,16.1c0,7.1-4.6,13.2-10.9,15.3c-0.8,0.2-1.1-0.3-1.1-0.8
				c0-0.5,0-2.3,0-4.4c0-1.5-0.5-2.5-1.1-3c3.6-0.4,7.3-1.8,7.3-8c0-1.8-0.6-3.2-1.6-4.3c0.2-0.4,0.7-2-0.2-4.3c0,0-1.3-0.4-4.4,1.7
				c-1.3-0.4-2.6-0.5-4-0.5c-1.4,0-2.7,0.2-4,0.5C8.9,6.3,7.6,6.7,7.6,6.7C6.7,8.9,7.3,10.6,7.4,11c-1,1.1-1.6,2.6-1.6,4.3
				c0,6.2,3.7,7.6,7.3,8c-0.5,0.4-0.9,1.1-1,2.2c-0.9,0.4-3.2,1.1-4.7-1.3c0,0-0.8-1.5-2.5-1.7c0,0-1.6,0-0.1,1c0,0,1,0.5,1.8,2.4
				c0,0,0.9,2.9,5.4,1.9c0,1.3,0,2.6,0,3c0,0.4-0.3,0.9-1.1,0.8C4.6,29.3,0,23.3,0,16.1C0,7.2,7.2,0,16,0z M6.1,23.1
				c0,0.1-0.2,0.1-0.3,0c-0.1-0.1-0.2-0.2-0.1-0.2c0-0.1,0.2-0.1,0.3,0C6.1,22.9,6.1,23,6.1,23.1L6.1,23.1z M6.8,23.8
				c-0.1,0.1-0.2,0-0.3-0.1c-0.1-0.1-0.1-0.3,0-0.3c0.1-0.1,0.2,0,0.3,0.1C6.8,23.6,6.8,23.7,6.8,23.8L6.8,23.8z M7.4,24.7
				c-0.1,0.1-0.3,0-0.4-0.1c-0.1-0.1-0.1-0.3,0-0.4c0.1-0.1,0.3,0,0.4,0.1C7.5,24.5,7.5,24.6,7.4,24.7L7.4,24.7z M8.2,25.6
				c-0.1,0.1-0.3,0.1-0.4-0.1c-0.1-0.1-0.2-0.3-0.1-0.4C7.8,25,8,25,8.2,25.2C8.3,25.3,8.3,25.5,8.2,25.6L8.2,25.6z M9.4,26.1
				c0,0.1-0.2,0.2-0.4,0.1c-0.2-0.1-0.3-0.2-0.3-0.3c0-0.1,0.2-0.2,0.4-0.1C9.4,25.8,9.5,26,9.4,26.1z M10.7,26.2
				c0,0.1-0.1,0.2-0.3,0.2c-0.2,0-0.3-0.1-0.3-0.2c0-0.1,0.1-0.2,0.3-0.2C10.6,26,10.7,26.1,10.7,26.2z M12,26
				c0,0.1-0.1,0.3-0.3,0.3c-0.2,0-0.4,0-0.4-0.2c0-0.1,0.1-0.3,0.3-0.3C11.8,25.8,11.9,25.9,12,26L12,26z"/>
		</g>
	</g>
</g>
</svg>
